;FLAVOR:Marlin

M140 S50
M105
M190 S50
M104 S200
M105
M109 S200
M82 ;absolute extrusion mode

; Ender 3 Custom Start G-code
G92 E0                          ; Reset Extruder
G28                             ; Home all axes
G1 Z2.0 F3000                   ; Move Z Axis up little to prevent scratching of Heat Bed
G1 X0.1 Y20 Z0.3 F5000.0        ; Move to start position
G1 X0.1 Y200.0 Z0.3 F1500.0 E15 ; Draw the first line
G1 X0.4 Y200.0 Z0.3 F5000.0     ; Move to side a little
G1 X0.4 Y20 Z0.3 F1500.0 E30    ; Draw the second line
G92 E0                          ; Reset Extruder
G1 Z2.0 F3000                   ; Move Z Axis up little to prevent scratching of Heat Bed
G1 X5 Y20 Z0.3 F5000.0          ; Move over to prevent blob squish
G92 E0
G1 F2700 E-5

;----------------------------------------------------------------

G0 X60 Y60 Z10
G1 F600
G1 Z0.3 E0
G91

; OUTLINE
G1 X100  E4.656
G1 Y100  E4.656
G1 X-100 E4.656
G1 Y-100 E4.656

;---------------------
; Horizontal

G1 Y8

; FILL 0.5mm
G1 Y0.5
G1 X100  E4.656
G1 Y0.5
G1 X-100  E4.656
G1 Y0.5
G1 X100  E4.656
G1 Y0.5
G1 X-100  E4.656
G1 Y0.5
G1 X100  E4.656
G1 Y0.5
G1 X-100  E4.656

G1 Y2

; FILL 1mm
G1 X100  E4.656
G1 Y1
G1 X-100  E4.656
G1 Y1
G1 X100  E4.656
G1 Y1
G1 X-100  E4.656
G1 Y1
G1 X100  E4.656
G1 Y1
G1 X-100  E4.656
G1 Y1
G1 X100  E4.656
G1 Y1
G1 X-100  E4.656
G1 Y1
G1 X100  E4.656
G1 Y1
G1 X-100  E4.656
G1 Y1
G1 X100  E4.656
G1 Y1
G1 X-100  E4.656
G1 Y1
G1 X100  E4.656
G1 Y1
G1 X-100  E4.656
G1 Y1
G1 X100  E4.656
G1 Y1
G1 X-100  E4.656

G1 Y2

; FILL 0.5mm
G1 X100  E4.656
G1 Y0.5
G1 X-100  E4.656
G1 Y0.5
G1 X100  E4.656
G1 Y0.5
G1 X-100  E4.656
G1 Y0.5
G1 X100  E4.656
G1 Y0.5
G1 X-100  E4.656

G1 Y8

; FILL 0.75mm
G1 X100  E4.656
G1 Y0.75
G1 X-100  E4.656
G1 Y0.75
G1 X100  E4.656
G1 Y0.75
G1 X-100  E4.656
G1 Y0.75
G1 X100  E4.656
G1 Y0.75
G1 X-100  E4.656
G1 Y0.75
G1 X100  E4.656
G1 Y0.75
G1 X-100  E4.656
G1 Y0.75
G1 X100  E4.656
G1 Y0.75
G1 X-100  E4.656

G1 Y8

; FILL 0.5mm
G1 Y0.5
G1 X100  E4.656
G1 Y0.5
G1 X-100  E4.656
G1 Y0.5
G1 X100  E4.656
G1 Y0.5
G1 X-100  E4.656
G1 Y0.5
G1 X100  E4.656
G1 Y0.5
G1 X-100  E4.656

G1 Y2

; FILL 1mm
G1 X100  E4.656
G1 Y1
G1 X-100  E4.656
G1 Y1
G1 X100  E4.656
G1 Y1
G1 X-100  E4.656
G1 Y1
G1 X100  E4.656
G1 Y1
G1 X-100  E4.656
G1 Y1
G1 X100  E4.656
G1 Y1
G1 X-100  E4.656
G1 Y1
G1 X100  E4.656
G1 Y1
G1 X-100  E4.656
G1 Y1
G1 X100  E4.656
G1 Y1
G1 X-100  E4.656
G1 Y1
G1 X100  E4.656
G1 Y1
G1 X-100  E4.656
G1 Y1
G1 X100  E4.656
G1 Y1
G1 X-100  E4.656

G1 Y2

; FILL 0.5mm
G1 X100  E4.656
G1 Y0.5
G1 X-100  E4.656
G1 Y0.5
G1 X100  E4.656
G1 Y0.5
G1 X-100  E4.656
G1 Y0.5
G1 X100  E4.656
G1 Y0.5
G1 X-100  E4.656

G1 Y8

; FILL 0.75mm
G1 X100  E4.656
G1 Y0.75
G1 X-100  E4.656
G1 Y0.75
G1 X100  E4.656
G1 Y0.75
G1 X-100  E4.656
G1 Y0.75
G1 X100  E4.656
G1 Y0.75
G1 X-100  E4.656
G1 Y0.75
G1 X100  E4.656
G1 Y0.75
G1 X-100  E4.656
G1 Y0.75
G1 X100  E4.656
G1 Y0.75
G1 X-100  E4.656

;---------------------
; Vertical

G1 E-2
G90
G0 X60 Y60 Z10
G1 F600
G1 Z0.6 E0
G91

G1 X8

; FILL 0.5mm
G1 X0.5
G1 Y100  E4.656
G1 X0.5
G1 Y-100  E4.656
G1 X0.5
G1 Y100  E4.656
G1 X0.5
G1 Y-100  E4.656
G1 X0.5
G1 Y100  E4.656
G1 X0.5
G1 Y-100  E4.656

G1 X2

; FILL 1mm
G1 Y100  E4.656
G1 X1
G1 Y-100  E4.656
G1 X1
G1 Y100  E4.656
G1 X1
G1 Y-100  E4.656
G1 X1
G1 Y100  E4.656
G1 X1
G1 Y-100  E4.656
G1 X1
G1 Y100  E4.656
G1 X1
G1 Y-100  E4.656
G1 X1
G1 Y100  E4.656
G1 X1
G1 Y-100  E4.656
G1 X1
G1 Y100  E4.656
G1 X1
G1 Y-100  E4.656
G1 X1
G1 Y100  E4.656
G1 X1
G1 Y-100  E4.656
G1 X1
G1 Y100  E4.656
G1 X1
G1 Y-100  E4.656

G1 X2

; FILL 0.5mm
G1 Y100  E4.656
G1 X0.5
G1 Y-100  E4.656
G1 X0.5
G1 Y100  E4.656
G1 X0.5
G1 Y-100  E4.656
G1 X0.5
G1 Y100  E4.656
G1 X0.5
G1 Y-100  E4.656

G1 X8

; FILL 0.75mm
G1 Y100  E4.656
G1 X0.75
G1 Y-100  E4.656
G1 X0.75
G1 Y100  E4.656
G1 X0.75
G1 Y-100  E4.656
G1 X0.75
G1 Y100  E4.656
G1 X0.75
G1 Y-100  E4.656
G1 X0.75
G1 Y100  E4.656
G1 X0.75
G1 Y-100  E4.656
G1 X0.75
G1 Y100  E4.656
G1 X0.75
G1 Y-100  E4.656

G1 X8

; FILL 0.5mm
G1 X0.5
G1 Y100  E4.656
G1 X0.5
G1 Y-100  E4.656
G1 X0.5
G1 Y100  E4.656
G1 X0.5
G1 Y-100  E4.656
G1 X0.5
G1 Y100  E4.656
G1 X0.5
G1 Y-100  E4.656

G1 X2

; FILL 1mm
G1 Y100  E4.656
G1 X1
G1 Y-100  E4.656
G1 X1
G1 Y100  E4.656
G1 X1
G1 Y-100  E4.656
G1 X1
G1 Y100  E4.656
G1 X1
G1 Y-100  E4.656
G1 X1
G1 Y100  E4.656
G1 X1
G1 Y-100  E4.656
G1 X1
G1 Y100  E4.656
G1 X1
G1 Y-100  E4.656
G1 X1
G1 Y100  E4.656
G1 X1
G1 Y-100  E4.656
G1 X1
G1 Y100  E4.656
G1 X1
G1 Y-100  E4.656
G1 X1
G1 Y100  E4.656
G1 X1
G1 Y-100  E4.656

G1 X2

; FILL 0.5mm
G1 Y100  E4.656
G1 X0.5
G1 Y-100  E4.656
G1 X0.5
G1 Y100  E4.656
G1 X0.5
G1 Y-100  E4.656
G1 X0.5
G1 Y100  E4.656
G1 X0.5
G1 Y-100  E4.656

G1 X8

; FILL 0.75mm
G1 Y100  E4.656
G1 X0.75
G1 Y-100  E4.656
G1 X0.75
G1 Y100  E4.656
G1 X0.75
G1 Y-100  E4.656
G1 X0.75
G1 Y100  E4.656
G1 X0.75
G1 Y-100  E4.656
G1 X0.75
G1 Y100  E4.656
G1 X0.75
G1 Y-100  E4.656
G1 X0.75
G1 Y100  E4.656
G1 X0.75
G1 Y-100  E4.656

;----------------------------------------------------------------

G91               ; Relative positioning
G1 E-2 F2700      ; Retract a bit
G1 E-2 Z0.2 F2400 ; Retract and raise Z
G1 X5 Y5 F3000    ; Wipe out
G1 Z10            ; Raise Z more
G90               ; Absolute positionning

G1 X0 Y235  ; Present print
M106 S0     ; Turn-off fan
M104 S0     ; Turn-off hotend
M140 S0     ; Turn-off bed
M84 X Y E   ; Disable all steppers but Z
M82         ; absolute extrusion mode
M104 S0
